X: 105
T: Des biens d'amours
N: Derived from Mar3004.a-Des_biens_damours.krn
C: Johannes Martini
%%abc-version 2.0
%%abcx-abcm2ps-target-version 5.9.1 (29 Sep 2008)
%%abc-creator hum2abc beta
%%abcx-conversion-date 2019/02/17 07:19:43
%%abc-edited-by Jesse Rodin
%%abc-edited-by Chris Gage 10-30-2014
%%abcx-initial-encoding-date 2015/02/26/
%%humdrum-veritas 3956931713
%%humdrum-veritas-data 633547511
%%linebreak <none>
%%barnumbers 0
L: 1/4
M: 2/1
Q: 1/2=120
V: 1 clef=treble
V: 2 clef=treble-8
V: 3 clef=bass
K: F
[V:1] z4A4 | 
[V:2] z8 | 
[V:3] D,4D,4 | 
[V:1] A4D2A2- | 
[V:2] z8 | 
[V:3] A,,2D,4C,B,, | 
[V:1] A2GFE4 | 
[V:2] A4A4 | 
[V:3] A,,2D,4^C,2 | 
[V:1] D2F4ED | 
[V:2] D2A4GF | 
[V:3] D,8 | 
[V:1] C4D2A2- | 
[V:2] E4D2F2- | 
[V:3] A,,4z4 | 
[V:1] A2GFGFED | 
[V:2] F2EDC3D | 
[V:3] D,4E,4 | 
[V:1] C3DE2F2- | 
[V:2] E2F2E2A2- | 
[V:3] A,,3B,,C,2D,2- | 
[V:1] F2ED^C3=B, | 
[V:2] A2GFE4 | 
[V:3] D,C,D,2A,,4 | 
[V:1] D4z4 | 
[V:2] D8 | 
[V:3] A,4B,4 | 
[V:1] A4B4 | 
[V:2] z8 | 
[V:3] A,2F,4G,2 | 
[V:1] A2F4G2 | 
[V:2] A4B4 | 
[V:3] A,4D,2E,2 | 
[V:1] A4D4 | 
[V:2] A2F4G2 | 
[V:3] F,2D,3C,B,,2 | 
[V:1] C4F4 | 
[V:2] A4D4 | 
[V:3] A,,4z2A,2- | 
[V:1] E4A4 | 
[V:2] C4F4 | 
[V:3] A,2G,2A,2F,2 | 
[V:1] G2E2F4 | 
[V:2] E4A4 | 
[V:3] G,4D,4 | 
[V:1] E2E4D2 | 
[V:2] G2E2F4 | 
[V:3] E,2C,2D,4 | 
[V:1] E4z4 | 
[V:2] E2A4G2 | 
[V:3] C,2A,,2B,,4 | 
[V:1] E4E4 | 
[V:2] A2c4=BA | 
[V:3] A,,2A,4G,F, | 
[V:1] E8 | 
[V:2] G2A4G2 | 
[V:3] E,2A,,2E,4 | 
[V:1] F4D2E2- | 
[V:2] A4=B2c2 | 
[V:3] D,3C,D,2A,,2- | 
[V:1] EDC=B,C2A,2- | 
[V:2] A3GFEF2 | 
[V:3] A,,2A,3G,F,E, | 
[V:1] A,2D4^C2 | 
[V:2] D4E4 | 
[V:3] F,2D,2A,,4 | 
[V:1] D2F2G2A2- | 
[V:2] D2d2=B2A2 | 
[V:3] A,2D,2E,2F,2 | 
[V:1] A2B2G2A2- | 
[V:2] d4e2f2- | 
[V:3] D,2G,2E,2D,2- | 
[V:1] A2GFE3F | 
[V:2] f2edc3d | 
[V:3] D,E,F,G,A,3G, | 
[V:1] G2A4^G2 | 
[V:2] e2A2=B4 | 
[V:3] E,2F,2E,4 | 
[V:1] A8 | 
[V:2] A3=Bc2d2 | 
[V:3] F,3G,A,2D,2 | 
[V:1] z4A4 | 
[V:2] e2d4^c2 | 
[V:3] C,2D,2A,4 | 
[V:1] B2A4GF | 
[V:2] d8 | 
[V:3] D,2F,4E,D, | 
[V:1] E2D2E4 | 
[V:2] z4A4 | 
[V:3] C,2D,4^C,2 | 
[V:1] D2F4ED | 
[V:2] B2A3GF2 | 
[V:3] D,4z2D,2 | 
[V:1] C2D4^C2 | 
[V:2] E2D2E4 | 
[V:3] A,,2B,,2A,,4 | 
[V:1] D2F2E4 | 
[V:2] D2d4^c2 | 
[V:3] A,2D,2A,4 | 
[V:1] D2F2G2A2- | 
[V:2] d4e2f2- | 
[V:3] B,3A,G,2F,2 | 
[V:1] A2GFE2G2- | 
[V:2] f2edc2e2- | 
[V:3] D,4z2C,2- | 
[V:1] GFEDE4 | 
[V:2] ed^c=B^c4 | 
[V:3] C,2D,2A,4 | 
[V:1] D8 | 
[V:2] d6c=B | 
[V:3] D,8- | 
[V:1] z4D4 | 
[V:2] A2B4AG | 
[V:3] D,8 | 
[V:1] D4D4 | 
[V:2] F2G4FE | 
[V:3] z4B,,4 | 
[V:1] D8 | 
[V:2] D2F4G2 | 
[V:3] B,,8 | 
[V:1] C8 | 
[V:2] A2F2E2A2- | 
[V:3] A,,8- | 
[V:1] C4C4 | 
[V:2] A2GFE2F2- | 
[V:3] A,,8 | 
[V:1] D4E2F2- | 
[V:2] FEG3FA2- | 
[V:3] B,,4C,2A,,2 | 
[V:1] F2ED^C3=B, | 
[V:2] A2GFE4 | 
[V:3] D,4A,,4 | 
[V:1] D8 | 
[V:2] D2F4ED | 
[V:3] z2A,4G,F, | 
[V:1] z8 | 
[V:2] C2D4^C2 | 
[V:3] E,2D,2E,4 | 
[V:1] A4=B2c2- | 
[V:2] D4z4 | 
[V:3] z2D,4E,2 | 
[V:1] c2=BAG3F | 
[V:2] A4=B2c2- | 
[V:3] F,4E,2C,2- | 
[V:1] A4B4 | 
[V:2] c2=BAG4 | 
[V:3] C,2D,2B,,4 | 
[V:1] c4d4 | 
[V:2] A4=B4 | 
[V:3] A,,4z4 | 
[V:1] c2A2=B4 | 
[V:2] c4d4 | 
[V:3] A,4G,4 | 
[V:1] A2A4G2 | 
[V:2] c2A2=B4 | 
[V:3] A,2F,2E,3D, | 
[V:1] A2F4ED | 
[V:2] A2A4G2 | 
[V:3] C,2A,,2B,,4 | 
[V:1] C3DE2F2- | 
[V:2] A8 | 
[V:3] A,,3B,,C,2D,2- | 
[V:1] F2EDEDC=B, | 
[V:2] D4A3G | 
[V:3] D,2C,B,,A,,2D,2- | 
[V:1] A,2D4^C2 | 
[V:2] F2D2E4 | 
[V:3] D,C,B,,2A,,4 | 
[V:1] D8 |]  
[V:2] D8 |]  
[V:3] A,8 |]  



